material/.icons/material/iframe-outline.svg

<svg xmlns="http://www.w3.org/2000/svg" viewBox="0 0 24 24"><path d="M9.5 8.5L11 10l-3 3 3 3-1.5 1.5L5 13l4.5-4.5m5 9L13 16l3-3-3-3 1.5-1.5L19 13l-4.5 4.5M21 2H3a2 2 0 00-2 2v16a2 2 0 002 2h18a2 2 0 002-2V4a2 2 0 00-2-2m0 18H3V6h18v14z"/></svg>

<?xml version="1.0" encoding="UTF-8"?><!DOCTYPE svg PUBLIC "-//W3C//DTD SVG 1.1//EN" "http://www.w3.org/Graphics/SVG/1.1/DTD/svg11.dtd"><svg xmlns="http://www.w3.org/2000/svg" xmlns:xlink="http://www.w3.org/1999/xlink" version="1.1" id="mdi-iframe-outline" width="24" height="24" viewBox="0 0 24 24"><path d="M9.5,8.5L11,10L8,13L11,16L9.5,17.5L5,13L9.5,8.5M14.5,17.5L13,16L16,13L13,10L14.5,8.5L19,13L14.5,17.5M21,2H3A2,2 0 0,0 1,4V20A2,2 0 0,0 3,22H21A2,2 0 0,0 23,20V4A2,2 0 0,0 21,2M21,20H3V6H21V20Z" /></svg>
